images/preim-4.svg

<svg width="50" height="51" viewBox="0 0 50 51" fill="none" xmlns="http://www.w3.org/2000/svg">
<g clip-path="url(#clip0_1157_41475)">
<circle cx="25" cy="25.6987" r="25" fill="white"/>
<path d="M33.9801 12.5737C31.1012 12.5737 28.6443 14.4522 27.7239 16.9676H16.1089C15.8516 16.9676 15.6428 17.1995 15.6409 17.4566L15.5303 33.8731H12.2196C11.9611 33.8731 11.7393 34.0602 11.7393 34.3191V36.4024C11.7452 38.3636 13.2899 39.9748 15.2491 40.0634V40.0737H29.6977V40.06C29.8147 40.0644 29.8629 40.0737 29.9369 40.0737H29.947C31.9747 40.0705 33.617 38.4258 33.617 36.398V25.865C33.734 25.8714 33.8578 25.8748 33.9789 25.8748C37.6425 25.8748 40.6238 22.8879 40.6238 19.2241C40.6238 15.5605 37.6439 12.5737 33.9801 12.5737ZM15.4271 39.1378H15.4241C13.9103 39.1357 12.6821 37.9116 12.6752 36.3976V34.809H26.2464V36.391C26.2471 37.3676 26.6371 38.3038 27.33 38.9922C27.3791 39.0414 27.4401 39.0793 27.4915 39.1378H15.4271ZM32.681 36.3976C32.6813 37.9089 31.4576 39.1348 29.9465 39.1378H29.9376C28.4204 39.135 27.1899 37.9084 27.1824 36.3914V34.3191C27.1862 34.1994 27.1405 34.0835 27.0558 33.999C26.971 33.9145 26.8551 33.869 26.7356 33.8731H16.4663L16.5737 17.9035H27.4641C27.3811 18.332 27.3382 18.7671 27.3359 19.2033C27.335 20.1257 27.5274 21.0379 27.9008 21.8813H23.4806C23.2219 21.8813 23.0126 22.0908 23.0126 22.3493C23.0126 22.6077 23.2219 22.8173 23.4806 22.8173H28.4085C29.3739 24.3354 30.9172 25.3938 32.681 25.748V36.3976ZM33.9801 24.9391C30.8276 24.9391 28.2718 22.3836 28.2721 19.2309C28.2721 16.0783 30.8276 13.5227 33.9803 13.5227C37.1327 13.5227 39.6883 16.0785 39.6883 19.2309C39.6848 22.382 37.1313 24.9357 33.9801 24.9391Z" fill="#F53B49" stroke="#F53B49" stroke-width="0.1875"/>
<path d="M20.4759 24.9956C19.6498 24.9956 18.978 25.6462 18.978 26.4459C18.978 27.2457 19.6498 27.8962 20.4759 27.8962C21.3019 27.8962 21.9739 27.2457 21.9739 26.4459C21.9739 25.6462 21.3019 24.9956 20.4759 24.9956ZM20.4759 26.9603C20.1658 26.9603 19.914 26.7295 19.914 26.4459C19.914 26.1621 20.166 25.9316 20.4759 25.9316C20.7857 25.9316 21.038 26.1623 21.038 26.4459C21.038 26.7295 20.7857 26.9603 20.4759 26.9603Z" fill="#F53B49" stroke="#F53B49" stroke-width="0.1875"/>
<path d="M23.0137 26.444C23.0137 26.7025 23.223 26.912 23.4816 26.912H29.7207C29.9791 26.912 30.1886 26.7025 30.1886 26.444C30.1886 26.1856 29.9791 25.9761 29.7207 25.9761H23.4816C23.223 25.9761 23.0137 26.1856 23.0137 26.444Z" fill="#F53B49" stroke="#F53B49" stroke-width="0.1875"/>
<path d="M20.4759 20.9277C19.6498 20.9277 18.978 21.5785 18.978 22.3783C18.978 23.178 19.6498 23.8286 20.4759 23.8286C21.3019 23.8286 21.9739 23.178 21.9739 22.3783C21.9739 21.5785 21.3019 20.9277 20.4759 20.9277ZM20.4759 22.8926C20.1658 22.8926 19.914 22.6618 19.914 22.3783C19.914 22.0947 20.166 21.8637 20.4759 21.8637C20.7857 21.8637 21.038 22.0945 21.038 22.3783C21.038 22.6618 20.7857 22.8929 20.4759 22.8929V22.8926Z" fill="#F53B49" stroke="#F53B49" stroke-width="0.1875"/>
<path d="M20.4759 29.0635C19.6498 29.0635 18.978 29.714 18.978 30.5138C18.978 31.3135 19.6498 31.9641 20.4759 31.9641C21.3019 31.9641 21.9739 31.3135 21.9739 30.5138C21.9739 29.714 21.3019 29.0635 20.4759 29.0635ZM20.4759 31.0281C20.1658 31.0281 19.914 30.7976 19.914 30.5138C19.914 30.2302 20.166 29.9994 20.4759 29.9994C20.7857 29.9994 21.038 30.2302 21.038 30.5138C21.038 30.7973 20.7857 31.0281 20.4759 31.0281Z" fill="#F53B49" stroke="#F53B49" stroke-width="0.1875"/>
<path d="M29.7207 30.0708H23.4816C23.223 30.0708 23.0137 30.2803 23.0137 30.5388C23.0137 30.7972 23.223 31.0067 23.4816 31.0067H29.7207C29.9791 31.0067 30.1886 30.7972 30.1886 30.5388C30.1886 30.2803 29.9791 30.0708 29.7207 30.0708Z" fill="#F53B49" stroke="#F53B49" stroke-width="0.1875"/>
<path d="M32.5397 16.3237C32.4516 16.3237 32.4041 16.3775 32.4041 16.4774L32.3837 20.3657H32.0107C31.9225 20.3657 31.875 20.4195 31.875 20.5194V21.0112C31.875 21.1111 31.9225 21.1649 32.0107 21.1649H32.3837L32.3769 21.795C32.3769 21.8949 32.4244 21.9487 32.5126 21.9487H33.1027C33.1909 21.9487 33.2384 21.8949 33.2384 21.795L33.2316 21.1649H34.2897C34.3779 21.1649 34.4254 21.1111 34.4254 21.0112V20.5194C34.4254 20.4195 34.3779 20.3657 34.2897 20.3657H33.2316L33.2248 19.9277H34.5068C35.5514 19.9277 36.25 19.1209 36.25 18.0758C36.25 17.0384 35.5514 16.3237 34.5068 16.3237H32.5397ZM33.2248 19.1285L33.2112 17.1229H34.4457C35.0359 17.1229 35.4496 17.5225 35.4496 18.168C35.4496 18.7674 35.1037 19.1285 34.4457 19.1285H33.2248Z" fill="#F53B49"/>
</g>
<defs>
<clipPath id="clip0_1157_41475">
<rect width="50" height="50" fill="white" transform="translate(0 0.69873)"/>
</clipPath>
</defs>
</svg>

<svg width="50" height="51" fill="none" xmlns="http://www.w3.org/2000/svg"><g clip-path="url(#clip0_1157_41475)"><circle cx="25" cy="25.699" r="25" fill="#fff"/><path d="M33.98 12.574c-2.879 0-5.336 1.878-6.256 4.394H16.109c-.257 0-.466.232-.468.489l-.11 16.416H12.22c-.259 0-.48.187-.48.446v2.083a3.676 3.676 0 003.51 3.661v.01h14.448v-.013c.117.004.165.014.239.014h.01a3.676 3.676 0 003.67-3.676V25.865c.117.006.24.01.362.01 3.663 0 6.645-2.987 6.645-6.65 0-3.665-2.98-6.651-6.644-6.651zM15.427 39.138h-.003a2.753 2.753 0 01-2.749-2.74v-1.589h13.571v1.582a3.67 3.67 0 001.084 2.601c.05.05.11.087.162.146H15.426zm17.254-2.74a2.74 2.74 0 01-2.734 2.74h-.01a2.76 2.76 0 01-2.755-2.747V34.32a.433.433 0 00-.446-.446h-10.27l.108-15.97h10.89a6.599 6.599 0 00.437 3.978h-4.42a.468.468 0 100 .936h4.927a6.604 6.604 0 004.273 2.931v10.65zm1.3-11.459a5.708 5.708 0 11-.001-11.415 5.708 5.708 0 010 11.415z" fill="#F53B49" stroke="#F53B49" stroke-width=".188"/><path d="M20.476 24.996c-.826 0-1.498.65-1.498 1.45 0 .8.672 1.45 1.498 1.45s1.498-.65 1.498-1.45c0-.8-.672-1.45-1.498-1.45zm0 1.964c-.31 0-.562-.23-.562-.514 0-.284.252-.514.562-.514.31 0 .562.23.562.514 0 .284-.252.514-.562.514zm2.538-.516c0 .259.209.468.468.468h6.239a.468.468 0 000-.936h-6.24a.468.468 0 00-.467.468zm-2.538-5.516c-.826 0-1.498.65-1.498 1.45 0 .8.672 1.45 1.498 1.45s1.498-.65 1.498-1.45c0-.8-.672-1.45-1.498-1.45zm0 1.965c-.31 0-.562-.231-.562-.515 0-.283.252-.514.562-.514.31 0 .562.23.562.514 0 .284-.252.515-.562.515v0zm0 6.171c-.826 0-1.498.65-1.498 1.45 0 .8.672 1.45 1.498 1.45s1.498-.65 1.498-1.45c0-.8-.672-1.45-1.498-1.45zm0 1.964c-.31 0-.562-.23-.562-.514 0-.284.252-.515.562-.515.31 0 .562.231.562.515 0 .283-.252.514-.562.514zm9.244-.958h-6.238a.468.468 0 100 .937h6.239a.468.468 0 000-.936z" fill="#F53B49" stroke="#F53B49" stroke-width=".188"/><path d="M32.54 16.324c-.088 0-.136.053-.136.153l-.02 3.889h-.373c-.089 0-.136.053-.136.153v.492c0 .1.047.154.136.154h.373l-.007.63c0 .1.047.154.136.154h.59c.088 0 .135-.054.135-.154l-.006-.63h1.058c.088 0 .135-.054.135-.154v-.492c0-.1-.047-.153-.135-.153h-1.058l-.007-.438h1.282c1.044 0 1.743-.807 1.743-1.852 0-1.038-.699-1.752-1.743-1.752H32.54zm.685 2.804l-.014-2.005h1.235c.59 0 1.004.4 1.004 1.045 0 .6-.346.96-1.004.96h-1.221z" fill="#F53B49"/></g><defs><clipPath id="clip0_1157_41475"><path fill="#fff" transform="translate(0 .699)" d="M0 0h50v50H0z"/></clipPath></defs></svg>
